!!!!SEGMENT: Gom2019-Levavi_oculos_meos.krn
!!!id: Gom2019
!!!AGN: Motet
!!!voices: 4
!!!COM: Nicolas Gombert
!!!OTL: Levavi oculos meos
**kern	**kern	**kern	**kern
*part4	*part3	*part2	*part1
*staff4	*staff3	*staff2	*staff1
*I"Bassus	*I"Tenor	*I"Altus	*I"Superius
*I'B	*I'T	*I'A	*I'S
*clefF4	*clefGv2	*clefGv2	*clefG2
*k[b-]	*k[b-]	*k[b-]	*k[b-]
*M2/1	*M2/1	*M2/1	*M2/1
*met(C|)	*met(C|)	*met(C|)	*met(C|)
=1	=1	=1	=1
!!section: Levavi oculos meos
!!!OMD: Levavi oculos meos
0r	2.G	0r	0g
.	4A	.	.
.	2B-y	.	.
.	[2c	.	.
=2	=2	=2	=2
0r	2c]	0r	0g
.	4B-y	.	.
.	4A	.	.
.	2B-y	.	.
.	2c	.	.
=3	=3	=3	=3
0r	2G	2.d	0dd
.	2G	.	.
.	.	4e	.
.	2d	2f	.
.	2G	[2g	.
=4	=4	=4	=4
0r	2.B-y	2g]	0dd
.	.	4f	.
.	4c	4e	.
.	2d	2f	.
.	2G	2g	.
=5	=5	=5	=5
0GG	2B-y	1d	2r
.	2G	.	2b-y
.	2.B-y	2r	2g
.	.	2G	[2b-y
.	4A	.	.
=6	=6	=6	=6
0GG	2.G	2B-y	4b-]
.	.	.	4a
.	.	2G	1b-y
.	8FL	.	.
.	8EJ	.	.
.	1D	1B-y	.
.	.	.	4a
.	.	.	4g
=7	=7	=7	=7
[0D	2r	1A	0f
.	2D	.	.
.	2.F	2r	.
.	.	2d	.
.	4G	.	.
=8	=8	=8	=8
0D]	2A	2.f	2r
.	2B-y	.	2d
.	.	4e	.
.	2A	4d	2f
.	.	4c	.
.	[2B-y	[2d	2d
=9	=9	=9	=9
2r	2B-]	4d]	2f
.	.	4c	.
2GG	4A	4d	2g
.	4G	4e	.
2D	2F	2f	2a
2GG	2G	[2d	[2b-y
=10	=10	=10	=10
2.BB-y	1D	2d]	2b-]
.	.	4c	4a
4C	.	4B-y	4g
1D	1r	2A	1f
.	.	[2d	.
=11	=11	=11	=11
0r	1r	2d]	2r
.	.	2B-y	1g
.	2r	2c	.
.	[2G	[2d	[2b-y
=12	=12	=12	=12
0r	2G]	4d]	2b-]
.	.	4c	.
.	1B-y	4d	4a
.	.	4e	4g
.	.	2f	2.dd
.	4A	[2g	.
.	4G	.	8ccL
.	.	.	8b-yJ
=13	=13	=13	=13
2r	1d	4g]	2.a
.	.	4f	.
1D	.	4f	.
.	.	8eL	8gL
.	.	8dJ	8fJ
.	1D	2.f	2b-y
[2F	.	.	[2a
.	.	8eL	.
.	.	8dJ	.
=14	=14	=14	=14
2F]	1A	2c	2a]
4E	.	1d	4g
4D	.	.	4f
1A	2r	.	1e
.	[2A	2c#i	.
=15	=15	=15	=15
1D	2A]	2d	[0d
.	2F	1d	.
2r	2G	.	.
[2D	2A	[2f	.
=16	=16	=16	=16
2D]	2D	2f]	1d]
2BB-y	2d	4e	.
.	.	4d	.
2C	2c	2e	2r
2D	2A	2f	[2dd
=17	=17	=17	=17
1GG	2B-y	2.g	2dd]
.	2G	.	2b-y
.	.	4f	.
2r	2A	2e	2cc
[2G	[2B-y	2d	2dd
=18	=18	=18	=18
2G]	4B-]	1r	2g
.	4G	.	.
2E	1c	.	2g
2F	.	2r	2f
2G	2B-y	[2g	2d
=19	=19	=19	=19
1C	2.c	2g]	2e
.	.	2e	2g
.	4B-y	.	.
1r	2A	2f	2a
.	2G	2g	2b-y
=20	=20	=20	=20
2r	2A	2c	4cc
.	.	.	4b-y
2D	2A	2f	4a
.	.	.	4g
2D	2d	2f	2f
2BB-y	2d	2f	2b-y
=21	=21	=21	=21
1C	2.c	1e	2a
.	.	.	1g
.	4B-y	.	.
1D	1A	1d	.
.	.	.	2f#i
=22	=22	=22	=22
0GG	2G	1d	0g
.	2G	.	.
.	2B-y	2G	.
.	2G	2B-y	.
=23	=23	=23	=23
1r	2.B-y	2G	1r
.	.	2.B-y	.
.	4c	.	.
1GG	2d	.	1g
.	.	4c	.
.	2B-y	2d	.
=24	=24	=24	=24
2.G	2d	2B-y	2.b-y
.	2B-y	2d	.
4G	.	.	4b-y
2G	2.d	2B-y	2b-y
2G	.	[2d	2b-y
.	4e	.	.
=25	=25	=25	=25
1F	2f	4d]	1a
.	.	4e	.
.	4F	2.f	.
.	4G	.	.
1D	4A	.	1f
.	4F	4e	.
.	[2B-y	[2d	.
=26	=26	=26	=26
1.E-i	4B-]	2d]	1.g
.	4A	.	.
.	4G	4c	.
.	4F	4B-y	.
.	2G	2c	.
2E-i	2G	2c	2g
=27	=27	=27	=27
1D	2A	0d	1f
.	2F	.	.
1BB-y	2G	.	1r
.	2G	.	.
=28	=28	=28	=28
2C	2.A	0r	0r
2C	.	.	.
.	4G	.	.
1D	4F	.	.
.	4D	.	.
.	[2d	.	.
=29	=29	=29	=29
1GG	4d]	0r	1r
.	4c	.	.
.	4B-y	.	.
.	4A	.	.
1D	2B-y	.	1f
.	[2A	.	.
=30	=30	=30	=30
2C	2A]	0r	2g
2BB-y	1G	.	2g
1AA	.	.	1a
.	2F#i	.	.
=31	=31	=31	=31
1GG	2.G	0r	1d
.	8FL	.	.
.	8EJ	.	.
1r	2D	.	1a
.	2F	.	.
=32	=32	=32	=32
0r	2G	1B-y	2g
.	2G	.	2f
.	1A	2c	1e
.	.	2c	.
=33	=33	=33	=33
1r	1D	1d	2d
.	.	.	2.dd
2r	1r	1G	.
.	.	.	4cc
[2G	.	.	4b-y
.	.	.	4a
=34	=34	=34	=34
4G]	0r	1d	2b-y
4F	.	.	.
2D	.	.	2.a
2F	.	2c	.
.	.	.	4g
2G	.	2B-y	[2g
=35	=35	=35	=35
1D	0r	1A	2g]
.	.	.	2f#i
2E-i	.	1G	[1g
[2C	.	.	.
=36	=36	=36	=36
4C]	0r	2r	1g]
4BB-y	.	.	.
4C	.	2G	.
4BB-y	.	.	.
[1GG	.	1B-y	2r
.	.	.	2g
=37	=37	=37	=37
0GG]	0r	2G	1b-y
.	.	1B-y	.
.	.	.	2g
.	.	2G	[2b-y
=38	=38	=38	=38
0r	0r	2B-y	2b-]
.	.	2c	2g
.	.	2d	2b-y
.	.	2e	2cc
=39	=39	=39	=39
0r	1r	2f	2dd
.	.	2g	2b-y
.	1G	2d	2b-y
.	.	[2g	4a
.	.	.	4g
=40	=40	=40	=40
1D	1d	2g]	1a
.	.	2f#i	.
1G	2r	1g	4g
.	.	.	4a
.	2G	.	4b-y
.	.	.	4cc
=41	=41	=41	=41
2r	2B-y	1r	4dd
.	.	.	4b-y
2C	2G	.	2ee-i
2G	2B-y	2r	2dd
2C	2c	[2g	2cc
=42	=42	=42	=42
2G	2d	2g]	2b-y
2A	2D	2f	2.a
[1B-y	2G	2e	.
.	.	.	4g
.	2G	2d	[2g
=43	=43	=43	=43
2B-]	1D	2r	2g]
2A	.	2f	2f#i
2.G	1r	2e	2g
.	.	[2d	[2b-y
4F	.	.	.
=44	=44	=44	=44
1E	2r	2d]	2b-]
.	2G	2c	4a
.	.	.	4g
1D	2A	2r	1f
.	2F	2d	.
=45	=45	=45	=45
0r	2G	2e	2r
.	2A	2c	2a
.	2r	2d	2b-y
.	2c	2e	2g
=46	=46	=46	=46
0r	2c	2r	2a
.	2B-y	2g	2b-y
.	1A	2g	2r
.	.	2f	2cc
=47	=47	=47	=47
0r	1G	2e	2cc
.	.	2.d	2b-y
.	1r	.	1a
.	.	4e	.
.	.	4f	.
.	.	4d	.
=48	=48	=48	=48
1r	2r	2e	2g
.	2F	2f	4c
.	.	.	4d
2r	2.c	2g	4e
.	.	.	4f
2C	.	2G	4g
.	4B-y	.	4e
=49	=49	=49	=49
2D	4A	1d	2f
.	4F	.	.
2BB-y	2B-y	.	1g
2C	1A	2c	.
2D	.	2A	2f#i
=50	=50	=50	=50
2r	2G	2B-y	1g
2G	1B-y	2d	.
2G	.	2e	2r
2F	[2A	2f	4c
.	.	.	4d
=51	=51	=51	=51
1E	2A]	2g	4e
.	.	.	4f
.	2G	2c	4g
.	.	.	4e
1D	2A	2d	2f
.	2d	2B-y	[2g
=52	=52	=52	=52
2r	2c	1A	2g]
2D	2d	.	2f#i
2.E	2B-y	2.G	1g
.	4c	.	.
4D	4B-y	4F	.
=53	=53	=53	=53
2C	4A	2E	1r
.	4G	.	.
2BB-y	1G	1D	.
1AA	.	.	1a
.	2F#i	2C	.
=54	=54	=54	=54
2GG	2G	2D	1.b-y
1G	2G	2E	.
.	2d	1D	.
2F	2d	.	2a
=55	=55	=55	=55
2E	3.G	2r	2g
2D	6A	2F	2f
.	3B-y	.	.
2.C	2c	2G	1e
.	2C	2G	.
4BB-y	.	.	.
=56	=56	=56	=56
1GG	2.G	2B-y	1d
.	.	2B-y	.
.	4F	.	.
1r	2D	1A	2r
.	[2F	.	2c
=57	=57	=57	=57
0r	2F]	2G	2d
.	2E	2G	2e
.	1D	2A	2f
.	.	2A	2f
=58	=58	=58	=58
2r	1C	2c	1e
2C	.	2c	.
2D	1r	1B-y	1d
2D	.	.	.
=59	=59	=59	=59
2F	1r	2A	0r
2F	.	1d	.
1E	2r	.	.
.	2G	2c	.
=60	=60	=60	=60
1D	2A	4d	0r
.	.	4e	.
.	2A	4f	.
.	.	4d	.
2r	2c	2e	.
2C	2c	2e	.
=61	=61	=61	=61
2D	1B-y	1d	0r
2D	.	.	.
2F	2A	1r	.
2F	[2d	.	.
=62	=62	=62	=62
1E	2d]	0r	0r
.	2c	.	.
1D	2B-y	.	.
.	2A	.	.
=63	=63	=63	=63
2r	2.G	0r	0r
1G	.	.	.
.	4A	.	.
.	4B-y	.	.
.	4c	.	.
2F	[2d	.	.
=64	=64	=64	=64
1E	4d]	0r	0r
.	4c	.	.
.	1c	.	.
1D	.	.	.
.	2BnXi	.	.
=65	=65	=65	=65
1C	2c	0r	0r
.	2G	.	.
2r	4A	.	.
.	4B-y	.	.
2C	4c	.	.
.	4A	.	.
=66	=66	=66	=66
2.D	2B-y	0r	0r
.	2.A	.	.
4E	.	.	.
4F	.	.	.
4D	4F	.	.
2E	4G	.	.
.	4A	.	.
=67	=67	=67	=67
1D	2B-y	0r	0r
.	2.A	.	.
2C	.	.	.
.	4G	.	.
2D	4F	.	.
.	4E	.	.
=68	=68	=68	=68
2BB-y	2D	0r	2r
2C	1G	.	2g
1AA	.	.	4a
.	.	.	4b-y
.	2F#i	.	4cc
.	.	.	4a
=69	=69	=69	=69
1GG	1G	2r	2b-y
.	.	2d	4a
.	.	.	4g
1r	1r	2.d	2b-y
.	.	.	[2a
.	.	4e	.
=70	=70	=70	=70
0r	0r	4f	4a]
.	.	4d	4f
.	.	2e	4g
.	.	.	4a
.	.	1d	2b-y
.	.	.	[2a
=71	=71	=71	=71
1r	0r	2c	2a]
.	.	2B-y	1g
2r	.	1A	.
2D	.	.	2f#i
=72	=72	=72	=72
2E	2r	4G	1g
.	.	4A	.
2G	2G	4B-y	.
.	.	4c	.
2G	2.B-y	2.d	2r
4F	.	.	2g
4E	4c	4e	.
=73	=73	=73	=73
2D	2d	2f	2a
2C	2.e-i	1g	2cc
2G	.	.	2b-y
.	4d	.	.
2D	[2d	2f	[2a
=74	=74	=74	=74
2F	2d]	2d	4a]
.	.	.	4f
2E	2c	2e	4g
.	.	.	4a
2.D	1d	1f	2b-y
.	.	.	[2a
4C	.	.	.
=75	=75	=75	=75
2AA	2c	2e	4a]
.	.	.	4g
2BB-y	2B-y	2d	1g
2C	1A	2e	.
2D	.	2d	2f#i
=76	=76	=76	=76
0GGl	0Gl	0dl	0gl
=77||	=77||	=77||	=77||
*M2/1	*M2/1	*M2/1	*M2/1
*met(C|)	*met(C|)	*met(C|)	*met(C|)
!!section: Dominus custodite
!!!OMD: Dominus custodite
1.G	1.B-y	1.d	0r
2G	2B-y	2d	.
=78	=78	=78	=78
1F	1A	2f	0r
.	.	4F	.
.	.	4G	.
1D	1F	4A	.
.	.	4F	.
.	.	[2B-y	.
=79	=79	=79	=79
1E	1G	2B-]	1.g
.	.	4A	.
.	.	4G	.
1E	1G	2B-y	.
.	.	2c	2g
=80	=80	=80	=80
0D	2.A	2.d	1f
.	4G	4c	.
.	4F	2A	1d
.	4D	.	.
.	[2d	2B-y	.
=81	=81	=81	=81
0r	2d]	1G	1e
.	4c	.	.
.	4B-y	.	.
.	1c	1A	1e
=82	=82	=82	=82
2.G	2d	1r	1d
.	1B-y	.	.
4G	.	.	.
2G	.	2.d	1r
2G	2B-y	.	.
.	.	4d	.
=83	=83	=83	=83
1F	2c	2f	0r
.	2A	2c	.
1D	2A	1f	.
.	2B-y	.	.
=84	=84	=84	=84
1E	2c	2e	2.g
.	2B-y	1d	.
.	.	.	4g
1E	1G	.	2g
.	.	2c	2g
=85	=85	=85	=85
0D	2A	2d	2f
.	2A	2f	4d
.	.	.	4e
.	1d	1f	4f
.	.	.	4g
.	.	.	4a
.	.	.	4b-y
=86	=86	=86	=86
0r	2c	2e	2cc
.	2B-y	2d	1dd
.	1A	1e	.
.	.	.	2cc
=87	=87	=87	=87
1D	1A	0d	2.dd
.	.	.	4cc
1G	1r	.	1b-y
=88	=88	=88	=88
1F	1A	0r	[0a
1D	1d	.	.
=89	=89	=89	=89
1.F	1c	0r	0a]
.	1A	.	.
2F	.	.	.
=90	=90	=90	=90
2E	2.c	0r	0r
1F	.	.	.
.	4B-y	.	.
.	4A	.	.
.	4G	.	.
4E	4F	.	.
4D	4E	.	.
=91	=91	=91	=91
2F	2D	1d	0r
2G	1d	.	.
1E	.	1g	.
.	2c#i	.	.
=92	=92	=92	=92
0D	1d	1f	1a
.	1r	1d	1dd
=93	=93	=93	=93
0r	0r	1.f	1cc
.	.	.	1a
.	.	2f	.
=94	=94	=94	=94
0r	0r	2e	2.cc
.	.	1f	.
.	.	.	4b-y
.	.	.	4a
.	.	.	4g
.	.	4e	4f
.	.	4d	4e
=95	=95	=95	=95
0r	2r	2f	2d
.	2G	2g	1dd
.	1A	1e	.
.	.	.	2cc#i
=96	=96	=96	=96
1GG	1B-y	1d	1dd
1C	1G	1r	1r
=97	=97	=97	=97
1BB-y	1.B-y	1d	0r
1GG	.	2d	.
.	4A	[2B-y	.
.	4G	.	.
=98	=98	=98	=98
1.BB-y	2F	2B-]	0r
.	2G	4A	.
.	.	4G	.
.	2D	2F	.
2BB-y	[2F	2d	.
=99	=99	=99	=99
2AA	2F]	2c	0r
1BB-y	4E	1d	.
.	4D	.	.
.	2F	.	.
4AA	2G	[2B-y	.
4GG	.	.	.
=100	=100	=100	=100
2BB-y	2D	4B-]	2r
.	.	4A	.
2C	2E	1G	2g
1AA	1C	.	4a
.	.	.	4b-y
.	.	2F#i	4cc
.	.	.	4a
=101	=101	=101	=101
0GG	1D	2G	1b-y
.	.	2d	.
.	1r	4e	1g
.	.	4f	.
.	.	4g	.
.	.	4e	.
=102	=102	=102	=102
1r	2r	2f	2a
.	2G	2d	2.b-y
2r	2A	2f	.
.	.	.	4a
2D	2F	2f	4a
.	.	.	8gL
.	.	.	8fJ
=103	=103	=103	=103
4E	2c	1e	1g
4F	.	.	.
4G	2G	.	.
4E	.	.	.
2F	2A	1d	[1f
2D	[2B-y	.	.
=104	=104	=104	=104
2F	4B-]	0r	1f]
.	4A	.	.
2F	4A	.	.
.	8GL	.	.
.	8FJ	.	.
1E	1G	.	1r
=105	=105	=105	=105
0D	0F	1r	1a
.	.	1d	[1dd
=106	=106	=106	=106
0r	0r	1.g	2dd]
.	.	.	2cc
.	.	.	2b-y
.	.	2f	2a
=107	=107	=107	=107
0r	1r	2e	2g
.	.	2d	2b-y
.	2r	2c	2a
.	2G	2B-y	[2g
=108	=108	=108	=108
1D	1.d	1A	2g]
.	.	.	2f#i
[1G	.	1G	1g
.	2c	.	.
=109	=109	=109	=109
2G]	2B-y	0r	0r
2F	2A	.	.
2E	2G	.	.
2D	2B-y	.	.
=110	=110	=110	=110
2C	2A	0r	1.cc
2BB-y	1G	.	.
1AA	.	.	.
.	2F#i	.	2cc
=111	=111	=111	=111
0GG	0G	1.g	1b-y
.	.	.	1b-y
.	.	2g	.
=112	=112	=112	=112
0r	0r	1f	1cc
.	.	1f	1a
=113	=113	=113	=113
0r	1.c	1g	[0g
.	.	1e	.
.	2c	.	.
=114	=114	=114	=114
1.G	1B-y	2d	1g]
.	.	4G	.
.	.	4A	.
.	1B-y	4B-y	2r
.	.	4c	.
2G	.	4d	2g
.	.	4e	.
=115	=115	=115	=115
1F	1c	2.f	2.a
.	.	8eL	4g
.	.	8dJ	.
1F	1A	2c	4a
.	.	.	4b-y
.	.	2f	2cc
=116	=116	=116	=116
1G	2G	2e	2b-y
.	2G	2d	1b-y
1E	2B-y	2r	.
.	2c	2G	4a
.	.	.	4g
=117	=117	=117	=117
1D	1d	2B-y	1f
.	.	2A	.
2r	2A	2F	2r
2D	2d	2f	2f
=118	=118	=118	=118
2E	2G	2e	2g
2D	2d	2f	2a
1G	1B-y	2.d	1b-y
.	.	4e	.
=119	=119	=119	=119
[0F	0c	1f	1a
.	.	1r	2r
.	.	.	2f
=120	=120	=120	=120
1F]	1r	0r	1.a
1r	1F	.	.
.	.	.	2b-y
=121	=121	=121	=121
0r	1.A	1r	1.cc
.	.	1c	.
.	2B-y	.	4b-y
.	.	.	4a
=122	=122	=122	=122
1r	1.c	1.e	1g
1C	.	.	2r
.	4B-y	2f	2cc
.	4A	.	.
=123	=123	=123	=123
1.E	1G	1.g	2cc
.	.	.	2.b-y
.	1c	.	.
.	.	.	4g
2F	.	4f	2a
.	.	4e	.
=124	=124	=124	=124
1.G	2B-y	2d	1.b-y
.	2G	1g	.
.	2B-y	.	.
4F	2c	2g	4a
4E	.	.	4g
=125	=125	=125	=125
2D	4d	2f	2a
.	4c	.	.
1G	4B-y	1d	1b-y
.	4A	.	.
.	2B-y	.	.
2G	2B-y	2e	4a
.	.	.	4g
=126	=126	=126	=126
1F	2c	4f	2.a
.	.	4e	.
.	2.A	4d	.
.	.	4c	4f
1D	.	2d	1f
.	4F	.	.
.	2B-y	2d	.
=127	=127	=127	=127
0F	2A	1c	2r
.	4F	.	1a
.	4G	.	.
.	4A	1r	.
.	4B-y	.	.
.	[2c	.	2a
=128	=128	=128	=128
1.E	2c]	0r	1g
.	4B-y	.	.
.	4A	.	.
.	2B-y	.	1g
2C	2c	.	.
=129	=129	=129	=129
0C	1G	1.e	1.cc
.	2r	.	.
.	[2G	2e	2cc
=130	=130	=130	=130
0r	2G]	1d	2b-y
.	2F	.	1a
.	2D	1d	.
.	[2d	.	4g
.	.	.	4f
=131	=131	=131	=131
0r	2d]	1.g	2.e
.	4c	.	.
.	4B-y	.	4d
.	2c	.	2e
.	2c	2g	2e
=132	=132	=132	=132
1.D	2d	1.f	1d
.	2A	.	.
.	2B-y	.	2r
2D	2A	2d	2f
=133	=133	=133	=133
1C	1c	1e	2g
.	.	.	2a
1BB-y	1d	1f	2.b-y
.	.	.	4a
=134	=134	=134	=134
1.E-i	2.G	1g	4b-y
.	.	.	4a
.	.	.	4g
.	4A	.	4f
.	2B-y	1G	1g
2E-i	2c	.	.
=135	=135	=135	=135
1D	1d	2A	2f
.	.	2F	1b-y
2r	1D	1f	.
2F	.	.	2a
=136	=136	=136	=136
1G	0r	2e	2g
.	.	1d	2f
2A	.	.	1e
2A	.	2c#i	.
=137	=137	=137	=137
2B-y	2r	4d	1d
.	.	4e	.
2BB-y	2d	4f	.
.	.	4d	.
1C	2c	4e	1r
.	.	4f	.
.	2B-y	[2g	.
=138	=138	=138	=138
1D	1A	2g]	1r
.	.	2f#i	.
2.E	2G	1g	2r
.	2B-y	.	2g
4D	.	.	.
=139	=139	=139	=139
2C	2A	0r	2a
2BB-y	1G	.	2b-y
1AA	.	.	2cc
.	2F#i	.	2a
=140	=140	=140	=140
1GG	1G	2r	2b-y
.	.	1d	4a
.	.	.	4g
1r	2r	.	2b-y
.	2F	2f	2a
=141	=141	=141	=141
0r	1G	2e	2g
.	.	1d	2f
.	1A	.	1e
.	.	2c#i	.
=142	=142	=142	=142
2r	2B-y	2.d	2d
1D	2.A	.	1f
.	.	4e	.
.	.	2f	.
.	4G	.	.
2D	4A	2F	2f
.	4B-y	.	.
=143	=143	=143	=143
2C	2c	2G	2e
2BB-y	1d	1B-y	2d
1E-i	.	.	1g
.	2c	4A	.
.	.	4G	.
=144	=144	=144	=144
1D	1d	2A	2f
.	.	2f	2a
1r	1r	1g	1b-y
=145	=145	=145	=145
2r	2r	1f	2a
2D	2A	.	4g
.	.	.	4f
1G	1B-y	[1d	1g
=146	=146	=146	=146
0D	1A	0d]	2f
.	.	.	2a
.	1r	.	4b-y
.	.	.	4a
.	.	.	[2dd
=147	=147	=147	=147
0r	0r	0e	2dd]
.	.	.	4cc
.	.	.	4b-y
.	.	.	1cc
=148	=148	=148	=148
0r	0r	0d	2dd
.	.	.	2a
.	.	.	2b-y
.	.	.	[2a
=149	=149	=149	=149
0r	0r	2r	2a]
.	.	2d	2f
.	.	2e-i	2g
.	.	[2d	2a
=150	=150	=150	=150
0r	0r	2d]	1b-y
.	.	2B-y	.
.	.	2c	2a
.	.	2d	[2b-y
=151	=151	=151	=151
1r	1r	2e-i	2b-]
.	.	2e-i	4a
.	.	.	4g
[1D	2r	[1d	1f
.	2A	.	.
=152	=152	=152	=152
1D]	4B-y	1d]	2r
.	4A	.	.
.	1d	.	2f
[1E-i	.	1r	[1g
.	4c	.	.
.	4B-y	.	.
=153	=153	=153	=153
1E-]	1c	1G	1g]
2D	1d	1A	2f
2D	.	.	2f
=154	=154	=154	=154
2E-i	2r	2G	2g
1D	2A	1d	2.f
.	1B-y	.	.
.	.	.	4e
2BB-y	.	2d	4f
.	.	.	4g
=155	=155	=155	=155
2C	2A	2e-i	2a
2D	2F	2d	2.b-y
2E-i	2G	2.B-y	.
.	.	.	4a
2E-i	[2B-y	.	[2g
.	.	4c	.
=156	=156	=156	=156
1.D	2B-]	1d	2g]
.	4A	.	4f#i
.	4G	.	4e
.	2A	2r	2f#i
2D	2A	[2d	2f#i
=157	=157	=157	=157
2GG	0G	2d]	2g
2G	.	2d	2b-y
2C	.	2e-i	2g
[2G	.	2d	[2b-y
=158	=158	=158	=158
4G]	1r	1.B-y	4b-]
4F	.	.	4a
4E	.	.	4g
4D	.	.	4f
1E	1G	.	1g
.	.	2c	.
=159	=159	=159	=159
0D	0A	0d	0f
=160	=160	=160	=160
0GGl	0Gl	0dl	0gl
==	==	==	==
*-	*-	*-	*-
!!!system-decoration: s1,s2,s3,s4
!!!RDF**kern: i = editorial accidental
!!!RDF**kern: l = terminal long
!!!ENC: Janosch Umbreit
!!!END: 2026/06/05
!!!EED: Benjamin Ory
!!!EEV: 2026/06/15
!!!YEC: Copyright 2026 Benjamin Ory, All Rights Reserved
!!!ONB: Translated from MusicXML on 2026/06/15
!!muse2ps: C^@{COM}^i2I150v90,90,90,120c120z18l2770t130
